assets/Sheaf of rice/Flat/sheaf_of_rice_flat.svg

<svg xmlns="http://www.w3.org/2000/svg" width="32" height="32" fill="none"><path fill="#44911B" d="M13.26 30h.49c.14 0 .25-.11.25-.26V11h-1v14h-2v-7.01c0-2.05-1.54-3.74-3.53-3.97a.416.416 0 0 0-.47.41v7.55c0 2.21 1.79 4 4 4h2v3.76c0 .15.11.26.26.26ZM16 16h1v13h2.03v-4.14c0-2.05 1.54-3.74 3.53-3.97.25-.03.47.16.47.41V26c0 2.21-1.79 4-4 4h-2.7c-.18 0-.33-.15-.33-.33V16Z"/><path fill="#F9C23C" d="M18.23 8c.41 0 .76.32.77.74.01.42-.33.76-.75.76h-3.06c-.52 0-.94.42-.94.94v1.8c0 .42-.34.76-.76.75-.42 0-.74-.36-.74-.77V6.06c0-2.24 1.82-4.06 4.06-4.06h4.44c.42 0 .76.34.75.76 0 .42-.36.74-.77.74h-4.4c-.42 0-.76.34-.75.76.01.42.36.74.77.74h3.4c.42 0 .76.34.75.76 0 .42-.36.74-.77.74h-4.4c-.42 0-.76.34-.75.76.01.42.36.74.77.74h2.38ZM21.23 17c.41 0 .76.32.78.73.01.42-.33.76-.75.76H18.2c-.52 0-.94.42-.94.94v1.81c0 .42-.34.76-.76.75-.42 0-.74-.36-.74-.77v-6.16c0-2.24 1.82-4.06 4.06-4.06h4.43c.42 0 .76.34.75.76 0 .42-.36.74-.77.74h-4.21c-.42 0-.76.34-.75.76 0 .42.36.74.77.74h3.21c.42 0 .76.34.75.76 0 .42-.36.74-.77.74h-4.21c-.42 0-.76.34-.75.76 0 .42.36.74.77.74h2.19Z"/></svg>

<svg width="32" height="32" viewBox="0 0 32 32" fill="none" xmlns="http://www.w3.org/2000/svg">
<path d="M13.26 30H13.75C13.89 30 14 29.89 14 29.74V11H13V25H11V17.99C11 15.94 9.46 14.25 7.47 14.02C7.22 13.99 7 14.18 7 14.43V21.98C7 24.19 8.79 25.98 11 25.98H13V29.74C13 29.89 13.11 30 13.26 30Z" fill="#44911B"/>
<path d="M16 16H17V29H19.03V24.86C19.03 22.81 20.57 21.12 22.56 20.89C22.81 20.86 23.03 21.05 23.03 21.3V26C23.03 28.21 21.24 30 19.03 30H16.33C16.15 30 16 29.85 16 29.67V16Z" fill="#44911B"/>
<path d="M18.23 8C18.64 8 18.99 8.32 19 8.74C19.01 9.16 18.67 9.5 18.25 9.5H15.19C14.67 9.5 14.25 9.92 14.25 10.44V12.24C14.25 12.66 13.91 13 13.49 12.99C13.07 12.99 12.75 12.63 12.75 12.22V6.06C12.75 3.82 14.57 2 16.81 2H21.25C21.67 2 22.01 2.34 22 2.76C22 3.18 21.64 3.5 21.23 3.5H16.83C16.41 3.5 16.07 3.84 16.08 4.26C16.09 4.68 16.44 5 16.85 5H20.25C20.67 5 21.01 5.34 21 5.76C21 6.18 20.64 6.5 20.23 6.5H15.83C15.41 6.5 15.07 6.84 15.08 7.26C15.09 7.68 15.44 8 15.85 8H18.23Z" fill="#F9C23C"/>
<path d="M21.23 17C21.64 17 21.99 17.32 22.01 17.73C22.02 18.15 21.68 18.49 21.26 18.49H18.2C17.68 18.49 17.26 18.91 17.26 19.43V21.24C17.26 21.66 16.92 22 16.5 21.99C16.08 21.99 15.76 21.63 15.76 21.22V15.06C15.76 12.82 17.58 11 19.82 11H24.25C24.67 11 25.01 11.34 25 11.76C25 12.18 24.64 12.5 24.23 12.5H20.02C19.6 12.5 19.26 12.84 19.27 13.26C19.27 13.68 19.63 14 20.04 14H23.25C23.67 14 24.01 14.34 24 14.76C24 15.18 23.64 15.5 23.23 15.5H19.02C18.6 15.5 18.26 15.84 18.27 16.26C18.27 16.68 18.63 17 19.04 17H21.23Z" fill="#F9C23C"/>
</svg>
